X:51
T:Quick March. JBs.051
S:Jas.Blackshaw MS, 1837, N.Shropshire
Z:Tony Weatherall 2006
M:2/4
L:1/8
Q:1/4=100
A:North Shropshire
R:March
K:C
â€œ*â€z|g2e2|c2G2|cc/c/ cc|Bd2z|!
f2d2|B2G2|(G/A/B/c/) â€œ*â€dd|ec2:|!
|:F|(3EGc (3cBc|(3edc (3cBc|(3def (3GAB|(3ceg â€œ*â€gG/F/|!
(3EGc (3cBc|(3edc (3cBc|(3def (3GAB|c3:|!
|:e|(3fdB (3fdB|(3cec (3Bce|(3fdB (3fdB|(3cec G>F|!
(3EGc (3cBc|(3edc (3cBc|(3def (3GAB|c3:|

